!!!COM: Schubert, Franz
!!!CNT: Deutscher
!!!TXO: Deutsch
!!!LYR: Friedrich von Schiller
!!!OTL: "Thekla (eine Geisterstimme)"
!!!OPS: Op. 88
!!!ONM: No. 2
!!!ODT: 1817/
!!NB: Vocal melody only encoded.
!!NB: Original key
**kern	**silbe
*staff1	*
*clefG2	*
*k[b-e-a-]	*
*M3/4	*
=7	=7
{2cc	{Wo
4cc	ich
=8	=8
2bn	sei,
4b	und
=9	=9
4.cc	wo
8cc	mich
8bn	hin-
8cc	-ge-
=10	=10
2dd	-wen-
4dd}	-det,}
=11	=11
{2ee-	{als
4dd	mein
=12	=12
2cc	flu2cht'-
4cc	-ger
=13	=13
4.dd-	Schat-
8dd-	-te
8cc	dir
8bn	ent-
=14	=14
2cc}	-schwebt?}
4r	.
=15	=15
*k[]	*
{2cc	{Hab'
4cc	ich
=16	=16
2b	nicht
4b	be-
=17	=17
4.cc	-schlos-
8cc	-sen
8b	und
8cc	ge-
=18	=18
2dd	-en-
4dd}	-det,}
=19	=19
{2ee	{hab'
4b	ich
=20	=20
2cc	nicht
4cc	ge-
=21	=21
4.dd	-lie-
8dd	-bet
8cc	und
8b	ge-
=22	=22
2cc}	-lebt?}
4r	.
=23	=23
2.r	.
=24	=24
2.r	.
=25	=25
{2b	{Willst
4b	du
=26	=26
2cc	nach
4dd	den
=27	=27
4.ee-	Nach-
8ee-	-ti-
8dd	-gal-
8cc	-len
=28	=28
4cc	fra-
4b}	-gen,}
4r	.
=29	=29
{2cc	{die
4cc	mit
=30	=30
2dd-	see-
4dd-	-len-
=31	=31
4.dd-	-vol-
8dd-	-ler
8cc	Me-
8b-	-lo-
=32	=32
2cc}	-die}
4r	.
=33	=33
{2cc	{dich
4cc	ent-
=34	=34
2b	-zu2ck-
8cc	-ten
8dd	|
=35	=35
4.ee	in
8ee	des
8dd	Len-
8cc	-zes
=36	=36
4cc	Ta-
4b}	-gen?}
4r	.
=37	=37
{4.ee	{Nur
8ee	so
8b	lang'
8b	sie
=38	=38
ddq	lieb-
2cc	|
4cc	-ten,
=39	=39
2dd	wa-
8cc	-ren
8b	|
=40	=40
2cc}	sie.}
4r	.
=41	=41
2.r	.
=42	=42
2.r	.
=43	=43
*k[b-e-a-]	*
{2cc	{Ob
4cc	ich
=44	=44
2bn	den
4b	Ver-
=45	=45
4.cc	-lo-
8cc	-re-
8bn	-nen
8cc	ge-
=46	=46
2dd	-fun-
4dd}	-den?}
=47	=47
{2ee-	{Glau-
4dd	-be
=48	=48
2cc	mir,
4cc	ich
=49	=49
4.dd-	bin
8dd-	mit
8cc	ihm
8bn	ver-
=50	=50
2cc}	-eint,}
4r	.
=51	=51
*k[]	*
{2cc	{wo
4cc	sich
=52	=52
2b	nicht
4b	mehr
=53	=53
4.cc	trennt,
8cc	was
8b	sich
8cc	ver-
=54	=54
2dd	-bun-
4dd}	-den,}
=55	=55
{2ee	{dort,
4b	wo
=56	=56
2cc	kei-
4cc	-ne
=57	=57
4.dd	Tra2-
8dd	-ne
8cc	wird
8b	ge-
=58	=58
2cc}	-weint.}
4r	.
=59	=59
2.r	.
=60	=60
2.r	.
=61	=61
{2b	{Dor-
4b	-ten
=62	=62
2cc	wirst
4dd	auch
=63	=63
4.ee-	du
8ee-	und
8dd	wie-
8cc	-der-
=64	=64
4cc	-fin-
4b}	-den,}
4r	.
=65	=65
{2cc	{wenn
4cc	dein
=66	=66
2dd-	Lie-
4dd-	-ben
=67	=67
4.dd-	un-
8dd-	-serm
8cc	Lie-
8b-	-ben
=68	=68
2cc}	gleicht;}
4r	.
=69	=69
{2cc	{dort
4cc	ist
=70	=70
2b	such
8cc	der
8dd	|
=71	=71
4.ee	Va-
8ee	-ter
8dd	frei
8cc	von
=72	=72
4cc	Su2n-
4b}	-den,}
4r	.
=73	=73
{4.ee	{den
8ee	der
8b	blut-
8b	-ge
=74	=74
ddq	Mord
2cc	|
4cc	nicht
=75	=75
2dd	mehr
8cc	er-
8b	|
=76	=76
2cc}	-reicht.}
4r	.
=77	=77
2.r	,
=78	=78
2.r	.
=79	=79
*k[b-e-a-]	*
{2cc	{Und
4cc	er
=80	=80
2bn	fu2hlt,
4b	dass
=81	=81
4.cc	ihn
8cc	kein
8bn	Wahn
8cc	be-
=82	=82
2dd	-tro-
4dd}	-gen,}
=83	=83
{2ee-	{als
4dd	er
=84	=84
2cc	auf-
4cc	-wa2rts
=85	=85
4.dd-	zu
8dd-	den
8cc	Ster-
8cc-	-nen
=86	=86
2cc}	sah;}
4r	.
=87	=87
*k[]	*
{2cc	{denn
4cc	wie
=88	=88
2b	je-
4b	-der
=89	=89
4.cc	wa2gt,
8cc	wird
8b	ihm
8cc	ge-
=90	=90
2dd	-wo-
4dd}	-gen,}
=91	=91
{2ee	{wer
4b	es
=92	=92
2cc	glaubt,
4cc	dem
=93	=93
4.dd	ist
8dd	das
8cc	Heil'-
8b	-ge
=94	=94
2cc}	nah.}
4r	.
=95	=95
2.r	.
=96	=96
2.r	.
=97	=97
{2b	{Wort
4b	ge-
=98	=98
2cc	-hal-
4dd	-ten
=99	=99
4.ee-	wird
8ee-	in
8dd	je-
8cc	-nen
=100	=100
4cc	Ra2u-
4b}	-men}
4r	.
=101	=101
{2cc	{je-
4cc	-dem
=102	=102
2dd-	scho2-
4dd-	-nen,
=103	=103
4.dd-	gla2u-
8dd-	-bi-
8cc	-gen
8b	Ge-
=104	=104
2cc}	-fu2hl;}
4r	.
=105	=105
{2cc	{wa-
4cc	-ge
=106	=106
2b	du
8cc	zu
8dd	|
=107	=107
4.ee	ir-
8ee	-ren
8dd	und
8cc	zu
=108	=108
4cc	tra2u-
4b}	-men:}
4r	.
=109	=109
{2ee	{ho-
4b	-her
=110	=110
ddq	Sinn
2cc	|
4cc	liegt
=111	=111
4.dd	oft
8dd	im
8cc	kind-
8b	-schen
=112	=112
2cc}	Spiel.}
4r	.
==	==
*-	*-